X:1
T:Title
%%score { ( 1 3 4 ) | ( 2 5 ) }
L:1/8
Q:1/4=100
M:4/4
K:Ab
V:1 treble nm="Grand Piano"
V:3 treble 
V:4 treble 
V:2 bass 
V:5 bass 
V:1
 [CA]>[CA] [CA]>[CA] [CA]2 [CE]2 | [DF]2 [EG]2 [FA]4 | [CE]>[CE] [CA]>[DB] [Ec]2 [EA]2 | %3
w: L.~C.~Hall * * * * *|||
 [Ec]4 [EB]4 | [Ec]>[Ec] [Ec]>[DB] [CA]2 [CE]2 | [DF]2 [EG]2 [FA]4 | E>E A>B c2 A2 | B4 [CA]4 | %8
w: |||||
 [Ec]6[K:bass][K:treble] z2 | [DG]6[K:bass] z2 | d->[Gd-] [Gd-]>[Fd-] [Ed]>F G>F | [CE]6 z2 | %12
w: ||||
 [_Ge]6 z2 | [_Ge]2 d4 F>F | E>E A>B c2 A2 |[M:8/4] B4 [CA]4 z8 |] %16
w: ||||
V:2
 [A,,E,]>[A,,E,] [A,,E,]>[A,,F,] [A,,E,]2 [A,,A,]2 | [D,A,]2 [D,A,]2 [D,A,]4 | %2
 [A,,A,]>[A,,A,] [A,,E,]>[A,,E,] [A,,A,]2 [C,A,]2 | [E,A,]4 [E,G,]4 | %4
 [A,,A,]>[B,,A,] [A,,A,]>[A,,E,] [A,,E,]2 [A,,A,]2 | [D,A,]2 [D,A,]2 [D,A,]4 | %6
 [E,A,C]>[E,A,C] [E,A,C]>[E,A,D] [E,A,E]2 [E,A,C]2 | [E,G,D]4 [A,,A,]4 | %8
 [A,,A,]>A,, A,,>A,, z z/ C/ C>C | [B,,E,]>B,, B,,>B,, B,,2 z2 | %10
 [E,B,]>[E,B,] [E,B,]>[E,B,] z z/ D/ E>D | A,,>A,, C,>E, A,2 z2 | %12
 [A,C]>A, A,>A, A,>[K:treble][A,C_G] [A,B,G]>[A,G] | z2 F4 [=D,A,_C]>[D,A,C] | %14
 [E,A,C]>[E,A,C] [E,A,C]>[E,A,D] [E,A,E]2 [E,A,C]2 |[M:8/4] [E,G,D]4 [A,,A,]4 z8 |] %16
V:3
 x8 | x8 | x8 | x8 | x8 | x8 | x8 | x8 | z z/[K:bass] A,/ A,>A, z z/ E/[K:treble] F>A | %9
 z z/[K:bass] E,/ E,>E, E,2 z2 | G2 z2 z4 | A,>A, A,>A, z4 | z z/ C/ C>D C>A B>c | x8 | x8 | %15
[M:8/4] x16 |] %16
V:4
 x8 | x8 | x8 | x8 | x8 | x8 | x8 | x8 | z4[K:bass] A,2[K:treble] z2 | x3/2[K:bass] x13/2 | x8 | %11
 x8 | x8 | x8 | x8 |[M:8/4] x16 |] %16
V:5
 x8 | x8 | x8 | x8 | x8 | x8 | x8 | x8 | z4 A,,2 z2 | x8 | z4 [E,B,]2 z2 | x8 | %12
 x11/2[K:treble] x5/2 | [D,A,]6 z2 | x8 |[M:8/4] x16 |] %16

